svgs/tick.svg

<svg width="50" height="50" viewBox="0 0 50 50" fill="none" xmlns="http://www.w3.org/2000/svg">
<path d="M47.9167 24.9997L42.8334 19.208L43.5417 11.5413L36.0209 9.83301L32.0834 3.20801L25 6.24967L17.9167 3.20801L13.9792 9.83301L6.45837 11.5205L7.16671 19.1872L2.08337 24.9997L7.16671 30.7913L6.45837 38.4788L13.9792 40.1872L17.9167 46.8122L25 43.7497L32.0834 46.7913L36.0209 40.1663L43.5417 38.458L42.8334 30.7913L47.9167 24.9997ZM20.8334 35.4163L12.5 27.083L15.4375 24.1455L20.8334 29.5205L34.5625 15.7913L37.5 18.7497L20.8334 35.4163Z" fill="white"/>
</svg>

<svg width="50" height="50" viewBox="0 0 50 50" fill="none" xmlns="http://www.w3.org/2000/svg">
    <path fill="white"
        d="m47.917 25-5.084-5.792.709-7.667-7.521-1.708-3.938-6.625L25 6.25l-7.083-3.042-3.938 6.625-7.52 1.688.708 7.666L2.083 25l5.084 5.791-.709 7.688 7.521 1.708 3.938 6.625L25 43.75l7.083 3.041 3.938-6.625 7.52-1.708-.708-7.667L47.917 25ZM20.833 35.416 12.5 27.083l2.938-2.938 5.395 5.375 13.73-13.729L37.5 18.75 20.833 35.416Z" />
</svg>
